img/x.svg

<svg width="37" height="42" viewBox="0 0 37 42" fill="none" xmlns="http://www.w3.org/2000/svg">
<path d="M1.67268 38.6346C1.68002 38.4527 1.54118 38.3543 1.47332 38.2158C0.968787 37.1914 1.15667 35.8836 1.98509 34.9056C2.76148 33.9894 3.55673 33.0877 4.34342 32.1804C12.8232 22.4002 21.303 12.6199 29.7828 2.83966C31.2445 1.15378 32.0647 0.892957 33.9779 1.50685C34.1925 1.69295 34.4063 1.8783 34.6209 2.0644C34.7488 2.31941 34.9079 2.56086 34.9994 2.83353C35.3476 3.87335 35.1359 4.87552 34.3973 5.82454C34.2799 5.97552 34.148 6.11728 34.0221 6.26253C24.9025 16.7807 15.7718 27.2874 6.67888 37.8286C5.41281 39.2906 4.11754 39.9588 2.44452 39.3038C2.18695 39.0805 1.93025 38.8579 1.67268 38.6346Z" fill="white"/>
<path d="M33.838 40.1792C33.5646 40.2611 33.2991 40.3761 33.0146 40.4191C31.9296 40.5824 30.979 40.2005 30.1722 39.3088C30.0438 39.167 29.9271 39.0125 29.8058 38.8633C21.0261 28.06 12.2595 17.2475 3.4524 6.46636C2.23003 4.96765 1.7974 3.57527 2.73316 2.04024C2.99702 1.82581 3.26175 1.61066 3.52561 1.39623C3.70357 1.43491 3.82536 1.31612 3.97285 1.27223C5.05842 0.956461 6.29841 1.36078 7.11635 2.30956C7.24201 2.45516 7.36061 2.6065 7.48185 2.75569C16.2923 13.5969 25.1028 24.4381 33.9124 35.2783C35.318 37.0079 35.4325 37.8645 34.4973 39.6418C34.2784 39.8214 34.0586 40 33.838 40.1792Z" fill="white"/>
</svg>

<svg width="37" height="42" fill="none" xmlns="http://www.w3.org/2000/svg"><path d="M1.673 38.635c.007-.182-.132-.28-.2-.42-.504-1.024-.316-2.331.512-3.31.776-.916 1.572-1.817 2.358-2.725l25.44-29.34c1.461-1.686 2.282-1.947 4.195-1.333l.643.557c.128.255.287.497.378.77.349 1.04.137 2.042-.602 2.99-.117.152-.249.293-.375.439-9.12 10.518-18.25 21.024-27.343 31.566-1.266 1.462-2.561 2.13-4.234 1.475l-.772-.67Z" fill="#fff"/><path d="M33.838 40.18c-.273.081-.539.196-.823.24-1.085.162-2.036-.22-2.843-1.111-.128-.142-.245-.296-.366-.446C21.026 28.06 12.259 17.247 3.452 6.466 2.23 4.968 1.797 3.576 2.733 2.04l.793-.644c.178.039.3-.08.447-.124 1.085-.316 2.325.089 3.143 1.038.126.145.245.296.366.446l26.43 32.522c1.406 1.73 1.52 2.587.585 4.364-.219.18-.438.358-.659.537Z" fill="#fff"/></svg>
